X:7420
T:The Town Of Coothill
O:england
R:jig
C:Ed Reavy
M:6/8
L:1/8
N:Ed's own town in Cavan, just a short distance from his
N:native village, Barnagrove. He was amazed at how little
N:the town had changed when he visited there in '69 -
N:"Only the lane where the fish was sold has
N:changed," he remarked. "It's still the same old Cootehill."
K:F
FAc faf|ece gfe|bgf ece|gfe fcA|FEF Acf|
eGA BAG Adc BGE|FGF F3:||Acf Acf|dBB B2 A|
GBd GBd|ecc cde|faf ebg|ece gfe|fcA BGE|FGF F3:||


